bernoullicharts/pow_x_2_1__bits.svg

<?xml version="1.0" encoding="utf-8" standalone="no"?>
<!DOCTYPE svg PUBLIC "-//W3C//DTD SVG 1.1//EN"
  "http://www.w3.org/Graphics/SVG/1.1/DTD/svg11.dtd">
<!-- Created with matplotlib (https://matplotlib.org/) -->
<svg height="345.6pt" version="1.1" viewBox="0 0 460.8 345.6" width="460.8pt" xmlns="http://www.w3.org/2000/svg" xmlns:xlink="http://www.w3.org/1999/xlink">
 <defs>
  <style type="text/css">
*{stroke-linecap:butt;stroke-linejoin:round;}
  </style>
 </defs>
 <g id="figure_1">
  <g id="patch_1">
   <path d="M 0 345.6 
L 460.8 345.6 
L 460.8 0 
L 0 0 
z
" style="fill:#ffffff;"/>
  </g>
  <g id="axes_1">
   <g id="patch_2">
    <path d="M 57.6 307.584 
L 414.72 307.584 
L 414.72 41.472 
L 57.6 41.472 
z
" style="fill:#ffffff;"/>
   </g>
   <g id="matplotlib.axis_1">
    <g id="xtick_1">
     <g id="line2d_1">
      <defs>
       <path d="M 0 0 
L 0 3.5 
" id="medeae0713b" style="stroke:#000000;stroke-width:0.8;"/>
      </defs>
      <g>
       <use style="stroke:#000000;stroke-width:0.8;" x="73.800255" xlink:href="#medeae0713b" y="307.584"/>
      </g>
     </g>
     <g id="text_1">
      <text style="font-family:DejaVu Sans;font-size:10px;font-style:normal;font-weight:normal;text-anchor:middle;" transform="rotate(-0, 73.800255, 322.182437)" x="73.800255" y="322.182437">0.0</text>
     </g>
    </g>
    <g id="xtick_2">
     <g id="line2d_2">
      <g>
       <use style="stroke:#000000;stroke-width:0.8;" x="138.744153" xlink:href="#medeae0713b" y="307.584"/>
      </g>
     </g>
     <g id="text_2">
      <text style="font-family:DejaVu Sans;font-size:10px;font-style:normal;font-weight:normal;text-anchor:middle;" transform="rotate(-0, 138.744153, 322.182437)" x="138.744153" y="322.182437">0.2</text>
     </g>
    </g>
    <g id="xtick_3">
     <g id="line2d_3">
      <g>
       <use style="stroke:#000000;stroke-width:0.8;" x="203.688051" xlink:href="#medeae0713b" y="307.584"/>
      </g>
     </g>
     <g id="text_3">
      <text style="font-family:DejaVu Sans;font-size:10px;font-style:normal;font-weight:normal;text-anchor:middle;" transform="rotate(-0, 203.688051, 322.182437)" x="203.688051" y="322.182437">0.4</text>
     </g>
    </g>
    <g id="xtick_4">
     <g id="line2d_4">
      <g>
       <use style="stroke:#000000;stroke-width:0.8;" x="268.631949" xlink:href="#medeae0713b" y="307.584"/>
      </g>
     </g>
     <g id="text_4">
      <text style="font-family:DejaVu Sans;font-size:10px;font-style:normal;font-weight:normal;text-anchor:middle;" transform="rotate(-0, 268.631949, 322.182437)" x="268.631949" y="322.182437">0.6</text>
     </g>
    </g>
    <g id="xtick_5">
     <g id="line2d_5">
      <g>
       <use style="stroke:#000000;stroke-width:0.8;" x="333.575847" xlink:href="#medeae0713b" y="307.584"/>
      </g>
     </g>
     <g id="text_5">
      <text style="font-family:DejaVu Sans;font-size:10px;font-style:normal;font-weight:normal;text-anchor:middle;" transform="rotate(-0, 333.575847, 322.182437)" x="333.575847" y="322.182437">0.8</text>
     </g>
    </g>
    <g id="xtick_6">
     <g id="line2d_6">
      <g>
       <use style="stroke:#000000;stroke-width:0.8;" x="398.519745" xlink:href="#medeae0713b" y="307.584"/>
      </g>
     </g>
     <g id="text_6">
      <text style="font-family:DejaVu Sans;font-size:10px;font-style:normal;font-weight:normal;text-anchor:middle;" transform="rotate(-0, 398.519745, 322.182437)" x="398.519745" y="322.182437">1.0</text>
     </g>
    </g>
    <g id="text_7">
     <text style="font-family:DejaVu Sans;font-size:10px;font-style:normal;font-weight:normal;text-anchor:middle;" transform="rotate(-0, 236.16, 335.860562)" x="236.16" y="335.860562">Probability</text>
    </g>
   </g>
   <g id="matplotlib.axis_2">
    <g id="ytick_1">
     <g id="line2d_7">
      <defs>
       <path d="M 0 0 
L -3.5 0 
" id="m6fc6a3d7ee" style="stroke:#000000;stroke-width:0.8;"/>
      </defs>
      <g>
       <use style="stroke:#000000;stroke-width:0.8;" x="57.6" xlink:href="#m6fc6a3d7ee" y="290.596235"/>
      </g>
     </g>
     <g id="text_8">
      <text style="font-family:DejaVu Sans;font-size:10px;font-style:normal;font-weight:normal;text-anchor:end;" transform="rotate(-0, 50.6, 294.395454)" x="50.6" y="294.395454">2.0</text>
     </g>
    </g>
    <g id="ytick_2">
     <g id="line2d_8">
      <g>
       <use style="stroke:#000000;stroke-width:0.8;" x="57.6" xlink:href="#m6fc6a3d7ee" y="235.008"/>
      </g>
     </g>
     <g id="text_9">
      <text style="font-family:DejaVu Sans;font-size:10px;font-style:normal;font-weight:normal;text-anchor:end;" transform="rotate(-0, 50.6, 238.807219)" x="50.6" y="238.807219">2.5</text>
     </g>
    </g>
    <g id="ytick_3">
     <g id="line2d_9">
      <g>
       <use style="stroke:#000000;stroke-width:0.8;" x="57.6" xlink:href="#m6fc6a3d7ee" y="179.419765"/>
      </g>
     </g>
     <g id="text_10">
      <text style="font-family:DejaVu Sans;font-size:10px;font-style:normal;font-weight:normal;text-anchor:end;" transform="rotate(-0, 50.6, 183.218983)" x="50.6" y="183.218983">3.0</text>
     </g>
    </g>
    <g id="ytick_4">
     <g id="line2d_10">
      <g>
       <use style="stroke:#000000;stroke-width:0.8;" x="57.6" xlink:href="#m6fc6a3d7ee" y="123.831529"/>
      </g>
     </g>
     <g id="text_11">
      <text style="font-family:DejaVu Sans;font-size:10px;font-style:normal;font-weight:normal;text-anchor:end;" transform="rotate(-0, 50.6, 127.630748)" x="50.6" y="127.630748">3.5</text>
     </g>
    </g>
    <g id="ytick_5">
     <g id="line2d_11">
      <g>
       <use style="stroke:#000000;stroke-width:0.8;" x="57.6" xlink:href="#m6fc6a3d7ee" y="68.243294"/>
      </g>
     </g>
     <g id="text_12">
      <text style="font-family:DejaVu Sans;font-size:10px;font-style:normal;font-weight:normal;text-anchor:end;" transform="rotate(-0, 50.6, 72.042513)" x="50.6" y="72.042513">4.0</text>
     </g>
    </g>
    <g id="text_13">
     <text style="font-family:DejaVu Sans;font-size:10px;font-style:normal;font-weight:normal;text-anchor:middle;" transform="rotate(-90, 28.617187, 174.528)" x="28.617187" y="174.528">Average Bits Consumed Per Call</text>
    </g>
   </g>
   <g id="line2d_12">
    <path clip-path="url(#p01ae216006)" d="M 73.832727 286.816235 
L 77.112066 288.372706 
L 80.391405 286.371529 
L 83.670744 295.488 
L 86.950083 281.924471 
L 90.229421 274.809176 
L 93.50876 280.590353 
L 96.788099 269.695059 
L 100.067438 278.589176 
L 103.346777 284.592706 
L 106.626116 277.699765 
L 109.905455 267.026824 
L 113.184793 256.576235 
L 116.464132 263.691529 
L 119.743471 266.582118 
L 123.02281 260.800941 
L 126.302149 245.013882 
L 129.581488 242.123294 
L 132.860826 263.913882 
L 136.140165 250.128 
L 139.419504 256.798588 
L 142.698843 235.230353 
L 145.978182 232.339765 
L 149.257521 231.005647 
L 152.53686 231.228 
L 155.816198 240.566824 
L 159.095537 232.117412 
L 162.374876 240.789176 
L 165.654215 237.898588 
L 168.933554 205.435059 
L 172.212893 244.124471 
L 175.492231 209.437412 
L 178.77157 219.888 
L 182.050909 200.543294 
L 185.330248 218.998588 
L 188.609587 213.884471 
L 191.888926 204.768 
L 195.168264 190.092706 
L 198.447603 198.319765 
L 201.726942 230.560941 
L 205.006281 208.103294 
L 208.28562 197.875059 
L 211.564959 191.871529 
L 214.844298 204.768 
L 218.123636 207.436235 
L 221.402975 192.316235 
L 224.682314 185.200941 
L 227.961653 180.531529 
L 231.240992 189.870353 
L 234.520331 188.758588 
L 237.799669 172.082118 
L 241.079008 159.185647 
L 244.358347 178.530353 
L 247.637686 172.082118 
L 250.917025 170.303294 
L 254.196364 165.856235 
L 257.475702 163.410353 
L 260.755041 158.296235 
L 264.03438 157.851529 
L 267.313719 146.956235 
L 270.593058 167.190353 
L 273.872397 151.180941 
L 277.151736 154.293882 
L 280.431074 152.737412 
L 283.710413 166.078588 
L 286.989752 147.845647 
L 290.269091 154.071529 
L 293.54843 137.395059 
L 296.827769 145.844471 
L 300.107107 139.840941 
L 303.386446 137.617412 
L 306.665785 117.160941 
L 309.945124 130.724471 
L 313.224463 125.610353 
L 316.503802 116.938588 
L 319.78314 117.160941 
L 323.062479 121.163294 
L 326.341818 124.943294 
L 329.621157 102.485647 
L 332.900496 89.144471 
L 336.179835 101.818588 
L 339.459174 103.819765 
L 342.738512 77.359765 
L 346.017851 101.373882 
L 349.29719 106.265647 
L 352.576529 112.046824 
L 355.855868 93.591529 
L 359.135207 97.149176 
L 362.414545 106.265647 
L 365.693884 87.143294 
L 368.973223 89.144471 
L 372.252562 107.377412 
L 375.531901 88.477412 
L 378.81124 74.024471 
L 382.090579 84.030353 
L 385.369917 81.362118 
L 388.649256 73.357412 
L 391.928595 73.357412 
L 395.207934 79.583294 
L 398.487273 53.568 
" style="fill:none;stroke:#1f77b4;stroke-linecap:square;stroke-width:1.5;"/>
   </g>
   <g id="patch_3">
    <path d="M 57.6 307.584 
L 57.6 41.472 
" style="fill:none;stroke:#000000;stroke-linecap:square;stroke-linejoin:miter;stroke-width:0.8;"/>
   </g>
   <g id="patch_4">
    <path d="M 414.72 307.584 
L 414.72 41.472 
" style="fill:none;stroke:#000000;stroke-linecap:square;stroke-linejoin:miter;stroke-width:0.8;"/>
   </g>
   <g id="patch_5">
    <path d="M 57.6 307.584 
L 414.72 307.584 
" style="fill:none;stroke:#000000;stroke-linecap:square;stroke-linejoin:miter;stroke-width:0.8;"/>
   </g>
   <g id="patch_6">
    <path d="M 57.6 41.472 
L 414.72 41.472 
" style="fill:none;stroke:#000000;stroke-linecap:square;stroke-linejoin:miter;stroke-width:0.8;"/>
   </g>
   <g id="text_14">
    <text style="font-family:DejaVu Sans;font-size:12px;font-style:normal;font-weight:normal;text-anchor:middle;" transform="rotate(-0, 236.16, 35.472)" x="236.16" y="35.472">Avg. Bits Consumed by pow(x,2/1) Algorithm</text>
   </g>
   <g id="legend_1">
    <g id="patch_7">
     <path d="M 64.6 64.150125 
L 150.239062 64.150125 
Q 152.239062 64.150125 152.239062 62.150125 
L 152.239062 48.472 
Q 152.239062 46.472 150.239062 46.472 
L 64.6 46.472 
Q 62.6 46.472 62.6 48.472 
L 62.6 62.150125 
Q 62.6 64.150125 64.6 64.150125 
z
" style="fill:#ffffff;opacity:0.8;stroke:#cccccc;stroke-linejoin:miter;"/>
    </g>
    <g id="line2d_13">
     <path d="M 66.6 54.570438 
L 86.6 54.570438 
" style="fill:none;stroke:#1f77b4;stroke-linecap:square;stroke-width:1.5;"/>
    </g>
    <g id="line2d_14"/>
    <g id="text_15">
     <text style="font-family:DejaVu Sans;font-size:10px;font-style:normal;font-weight:normal;text-anchor:start;" transform="rotate(-0, 94.6, 58.070438)" x="94.6" y="58.070438">pow(x,2/1)</text>
    </g>
   </g>
  </g>
 </g>
 <defs>
  <clipPath id="p01ae216006">
   <rect height="266.112" width="357.12" x="57.6" y="41.472"/>
  </clipPath>
 </defs>
</svg>

<svg height="460.8" viewBox="0 0 460.8 345.6" width="614.4" xmlns="http://www.w3.org/2000/svg" xmlns:xlink="http://www.w3.org/1999/xlink"><defs><style>*{stroke-linecap:butt;stroke-linejoin:round}</style></defs><g id="figure_1"><path d="M0 345.6h460.8V0H0z" fill="#fff" id="patch_1"/><g id="axes_1"><path d="M57.6 307.584h357.12V41.472H57.6z" fill="#fff" id="patch_2"/><g id="matplotlib.axis_1"><g id="xtick_1"><g id="line2d_1"><defs><path d="M0 0v3.5" id="medeae0713b" stroke="#000" stroke-width=".8"/></defs><use x="73.8" xlink:href="#medeae0713b" y="307.584" stroke="#000" stroke-width=".8"/></g><text x="73.8" y="322.182" font-family="DejaVu Sans" font-size="10" font-weight="400" text-anchor="middle" id="text_1">0.0</text></g><g id="xtick_2"><use x="138.744" xlink:href="#medeae0713b" y="307.584" stroke="#000" stroke-width=".8" id="line2d_2"/><text x="138.744" y="322.182" font-family="DejaVu Sans" font-size="10" font-weight="400" text-anchor="middle" id="text_2">0.2</text></g><g id="xtick_3"><use x="203.688" xlink:href="#medeae0713b" y="307.584" stroke="#000" stroke-width=".8" id="line2d_3"/><text x="203.688" y="322.182" font-family="DejaVu Sans" font-size="10" font-weight="400" text-anchor="middle" id="text_3">0.4</text></g><g id="xtick_4"><use x="268.632" xlink:href="#medeae0713b" y="307.584" stroke="#000" stroke-width=".8" id="line2d_4"/><text x="268.632" y="322.182" font-family="DejaVu Sans" font-size="10" font-weight="400" text-anchor="middle" id="text_4">0.6</text></g><g id="xtick_5"><use x="333.576" xlink:href="#medeae0713b" y="307.584" stroke="#000" stroke-width=".8" id="line2d_5"/><text x="333.576" y="322.182" font-family="DejaVu Sans" font-size="10" font-weight="400" text-anchor="middle" id="text_5">0.8</text></g><g id="xtick_6"><use x="398.52" xlink:href="#medeae0713b" y="307.584" stroke="#000" stroke-width=".8" id="line2d_6"/><text x="398.52" y="322.182" font-family="DejaVu Sans" font-size="10" font-weight="400" text-anchor="middle" id="text_6">1.0</text></g><text x="236.16" y="335.861" font-family="DejaVu Sans" font-size="10" font-weight="400" text-anchor="middle" id="text_7">Probability</text></g><g id="matplotlib.axis_2"><g id="ytick_1"><g id="line2d_7"><defs><path d="M0 0h-3.5" id="m6fc6a3d7ee" stroke="#000" stroke-width=".8"/></defs><use x="57.6" xlink:href="#m6fc6a3d7ee" y="290.596" stroke="#000" stroke-width=".8"/></g><text x="50.6" y="294.395" font-family="DejaVu Sans" font-size="10" font-weight="400" text-anchor="end" id="text_8">2.0</text></g><g id="ytick_2"><use x="57.6" xlink:href="#m6fc6a3d7ee" y="235.008" stroke="#000" stroke-width=".8" id="line2d_8"/><text x="50.6" y="238.807" font-family="DejaVu Sans" font-size="10" font-weight="400" text-anchor="end" id="text_9">2.5</text></g><g id="ytick_3"><use x="57.6" xlink:href="#m6fc6a3d7ee" y="179.42" stroke="#000" stroke-width=".8" id="line2d_9"/><text x="50.6" y="183.219" font-family="DejaVu Sans" font-size="10" font-weight="400" text-anchor="end" id="text_10">3.0</text></g><g id="ytick_4"><use x="57.6" xlink:href="#m6fc6a3d7ee" y="123.832" stroke="#000" stroke-width=".8" id="line2d_10"/><text x="50.6" y="127.631" font-family="DejaVu Sans" font-size="10" font-weight="400" text-anchor="end" id="text_11">3.5</text></g><g id="ytick_5"><use x="57.6" xlink:href="#m6fc6a3d7ee" y="68.243" stroke="#000" stroke-width=".8" id="line2d_11"/><text x="50.6" y="72.043" font-family="DejaVu Sans" font-size="10" font-weight="400" text-anchor="end" id="text_12">4.0</text></g><text transform="rotate(-90 28.617 174.528)" x="28.617" y="174.528" font-family="DejaVu Sans" font-size="10" font-weight="400" text-anchor="middle" id="text_13">Average Bits Consumed Per Call</text></g><path clip-path="url(#p01ae216006)" d="M73.833 286.816l3.28 1.557 3.278-2.001 3.28 9.116 3.28-13.564 3.278-7.115 3.28 5.781 3.28-10.895 3.278 8.894 3.28 6.004 3.28-6.893 3.278-10.673 3.28-10.45 3.28 7.115 3.278 2.89 3.28-5.781 3.28-15.787 3.278-2.89 3.28 21.79 3.28-13.786 3.279 6.67 3.279-21.568 3.28-2.89 3.279-1.334 3.279.222 3.28 9.339 3.279-8.45 3.279 8.672 3.28-2.89 3.279-32.464 3.279 38.69 3.28-34.688 3.279 10.451 3.279-19.345L185.33 219l3.279-5.115 3.279-9.116 3.28-14.675 3.279 8.227 3.279 32.24 3.28-22.457 3.279-10.228 3.279-6.003 3.28 12.896 3.279 2.668 3.279-15.12 3.28-7.115 3.279-4.67 3.279 9.34 3.28-1.112 3.279-16.677 3.279-12.896 3.28 19.344 3.279-6.448 3.279-1.779 3.28-4.447 3.279-2.446 3.279-5.114 3.28-.444 3.279-10.896 3.28 20.234 3.278-16.01 3.28 3.114 3.28-1.557 3.278 13.342 3.28-18.233 3.28 6.226 3.278-16.677 3.28 8.45 3.28-6.004 3.278-2.224 3.28-20.456 3.28 13.563 3.278-5.114 3.28-8.671 3.28.222 3.278 4.002 3.28 3.78 3.28-22.457 3.278-13.342 3.28 12.675 3.28 2 3.279-26.46 3.279 24.015 3.28 4.892 3.279 5.78 3.279-18.454 3.28 3.557 3.279 9.117 3.279-19.123 3.28 2.001 3.279 18.233 3.279-18.9 3.28-14.453 3.279 10.006 3.279-2.668 3.28-8.005h3.279l3.279 6.226 3.28-26.015" fill="none" stroke="#1f77b4" stroke-linecap="square" stroke-width="1.5" id="line2d_12"/><path d="M57.6 307.584V41.472" fill="none" stroke="#000" stroke-linecap="square" stroke-width=".8" id="patch_3"/><path d="M414.72 307.584V41.472" fill="none" stroke="#000" stroke-linecap="square" stroke-width=".8" id="patch_4"/><path d="M57.6 307.584h357.12" fill="none" stroke="#000" stroke-linecap="square" stroke-width=".8" id="patch_5"/><path d="M57.6 41.472h357.12" fill="none" stroke="#000" stroke-linecap="square" stroke-width=".8" id="patch_6"/><text x="236.16" y="35.472" font-family="DejaVu Sans" font-size="12" font-weight="400" text-anchor="middle" id="text_14">Avg. Bits Consumed by pow(x,2/1) Algorithm</text><g id="legend_1"><path d="M64.6 64.15h85.64q2 0 2-2V48.472q0-2-2-2H64.6q-2 0-2 2V62.15q0 2 2 2z" fill="#fff" opacity=".8" stroke="#ccc" id="patch_7"/><path d="M66.6 54.57h20" fill="none" stroke="#1f77b4" stroke-linecap="square" stroke-width="1.5" id="line2d_13"/><text x="94.6" y="58.07" font-family="DejaVu Sans" font-size="10" font-weight="400" id="text_15">pow(x,2/1)</text></g></g></g><defs><clipPath id="p01ae216006"><path d="M57.6 41.472h357.12v266.112H57.6z"/></clipPath></defs></svg>
